X: 3941
T: Blackbird, The
R: hornpipe
M: 4/4
K: Dmixolydian
dc|:BGBd cA{A}BG|(3ABA GB ABcA|d2de dcAF|GB{B}AF D2DE|
{G}FEFG Adfe|d2de dcAF|1 [M:3/2] GB{B}AF D2 D2 D2dc:|2 [M:3/2] GB{B}AF D2 D2 D2de||
|:[M:C||{g}fede {fg}f2g2|a2ag fg{b}af|g2{ga}gf gbaf|ga{a}gf d2de|
{g}fede {fg}f2g2|a2ag fg{b}af|[M:3/2] ga{a}gf d2dc defg|
[M:C||a2ag fg{b}af|ga{ga}ge (3fgf ef|dcAG ABcd|ef{a}ge {ab}a2a2|
AB{B}AG FGAB|c2ce dcAF|1 [M:3/2] GB{B}AF D2D2 D2de:|2 [M:3/2] GB{B}AF D2D2 D2||

